X:1
T:Gaily the Troubador
M:4/4
L:1/4
K:C
 E2 G E| C C C2| D2 C D| E- G3| E2 G E| C C C2| D2 E D| C4| c2 B A|\
 G E C2| A2 G F| E4| C D E2| F G A2| G F2 D| C4|:|
